!!!OTL: MORGENROTH! MORGENROTH! LEUCHTEST MIR ZU FRUEHEM TOD
!!!ARE: Europa, Mitteleuropa, Deutschland
!!!SCT: Z0196
!!!YEM: Copyright 1995, estate of Helmut Schaffrath.
**kern
*ICvox
*Ivox
!! Mixed meters:  3/4; 6/4
*M3/4
*k[f#]
*G:
{8d
8b
=1
4b
8a
8r
8d
8cc
=2
4cc
8b
8r}
{8g
8b
=3
4.dd
8b
8cc
8a
=4
4a
4g
4r}
=5
*M6/4
{8.g
16b
8b
8b
8b
8b
8.dd
16cc
4a
4r}
=6
{8.a
16cc
8cc
8cc
8cc
8cc
8.ee
16dd
4b
8r
16g
16b}
=7
*M3/4
{4.dd
8b
8cc
8a
=8
4a
4g
4r}
=9
*M6/4
{8.g
16b
8b
8b
8b
8b
8.dd
16cc
4a
4r}
=10
{8.a
16cc
8cc
8cc
8cc
8cc
8.ee
16dd
4b
8r
16g
16b}
=11
*M3/4
{4.dd
8b
8cc
8a
=12
4a
4g}
==
!!!AGN: Soldaten -, Jaeger - Lied; Phrasen geaendert (2.7.89)
!!!ONB: ESAC (Essen Associative Code) Database: ZUCCAL
!!!AMT: irregular
!!!AIN: vox
!!!EED: Helmut Schaffrath
!!!EEV: 1.0
*-
